src/assets/image/hand-black.svg

<svg width="32" height="35" viewBox="0 0 32 35" fill="none" xmlns="http://www.w3.org/2000/svg">
<g filter="url(#filter0_d)">
<path d="M22.7154 11.5593C21.6968 10.2759 19.9628 9.90401 18.542 10.5697C17.7516 9.75686 16.6514 9.40451 15.5848 9.5526V5.73721C15.5848 3.82293 14.0311 2.26556 12.1213 2.26556C10.2116 2.26556 8.65782 3.82293 8.65782 5.73721V14.0862C7.61756 13.7023 6.39682 13.8223 5.41392 14.5459C3.88009 15.6752 3.5437 17.8276 4.65367 19.3726L10.3856 27.3523C11.0347 28.2558 12.0854 28.7952 13.1962 28.7952H22.5118C24.1212 28.7952 25.5201 27.6811 25.885 26.1113L27.3182 19.9453C27.3781 19.6869 27.4084 19.4226 27.4085 19.1574V14.8049C27.4085 12.3777 24.9723 10.6974 22.7154 11.5593ZM8.23156 16.7582L9.64892 18.7313C10.1189 19.3855 11.1658 19.0571 11.1658 18.2503V5.73721C11.1658 4.4356 13.0767 4.43353 13.0767 5.73721V14.8049C13.0767 15.2628 13.451 15.634 13.9127 15.634H14.271C14.7327 15.634 15.107 15.2628 15.107 14.8049V12.9914C15.107 11.6898 17.0179 11.6877 17.0179 12.9914V14.8049C17.0179 15.2628 17.3921 15.634 17.8539 15.634H18.2123C18.674 15.634 19.0483 15.2628 19.0483 14.8049V13.7168C19.0483 12.4152 20.9592 12.4131 20.9592 13.7168V14.8049C20.9592 15.2628 21.3334 15.634 21.7952 15.634H22.1535C22.6152 15.634 22.9895 15.2628 22.9895 14.8049C22.9895 13.5033 24.9004 13.5013 24.9004 14.8049V19.1574C24.9004 19.2346 24.8915 19.3117 24.8741 19.3866L23.4409 25.5527C23.3375 25.9974 22.9555 26.308 22.5118 26.308H13.1962C12.8947 26.308 12.6077 26.1589 12.4283 25.9092L6.69569 17.9296C5.94296 16.8817 7.47914 15.7109 8.23156 16.7582Z" fill="#161819"/>
</g>
<defs>
<filter id="filter0_d" x="0" y="0.265564" width="31.4085" height="34.5296" filterUnits="userSpaceOnUse" color-interpolation-filters="sRGB">
<feFlood flood-opacity="0" result="BackgroundImageFix"/>
<feColorMatrix in="SourceAlpha" type="matrix" values="0 0 0 0 0 0 0 0 0 0 0 0 0 0 0 0 0 0 127 0"/>
<feOffset dy="2"/>
<feGaussianBlur stdDeviation="2"/>
<feColorMatrix type="matrix" values="0 0 0 0 1 0 0 0 0 1 0 0 0 0 1 0 0 0 0.25 0"/>
<feBlend mode="normal" in2="BackgroundImageFix" result="effect1_dropShadow"/>
<feBlend mode="normal" in="SourceGraphic" in2="effect1_dropShadow" result="shape"/>
</filter>
</defs>
</svg>

<svg xmlns="http://www.w3.org/2000/svg" width="32" height="35" fill="none"><g filter="url(#A)"><path d="M22.715 11.56c-1.02-1.283-2.753-1.655-4.173-1a3.45 3.45 0 0 0-2.957-1.017V5.737c0-1.914-1.554-3.472-3.463-3.472S8.658 3.823 8.658 5.737v8.35c-1.04-.384-2.26-.264-3.244.46-1.534 1.13-1.87 3.282-.76 4.827l5.732 7.98a3.47 3.47 0 0 0 2.811 1.443h9.316a3.47 3.47 0 0 0 3.373-2.684l1.433-6.166c.06-.258.1-.523.1-.788v-4.352c0-2.427-2.436-4.107-4.693-3.246zm-14.484 5.2L9.65 18.73c.47.654 1.517.326 1.517-.48V5.737c0-1.302 1.91-1.304 1.91 0v9.068c0 .458.374.83.836.83h.358c.462 0 .836-.37.836-.83V12.99c0-1.302 1.91-1.304 1.91 0v1.813c0 .458.374.83.836.83h.358c.462 0 .836-.37.836-.83v-1.088c0-1.302 1.91-1.304 1.91 0v1.088c0 .458.374.83.836.83h.358c.462 0 .836-.37.836-.83 0-1.302 1.91-1.304 1.91 0v4.352c0 .077-.01.154-.026.23l-1.433 6.166c-.103.445-.485.755-.93.755h-9.316a.95.95 0 0 1-.768-.399l-5.733-7.98c-.753-1.048.783-2.22 1.536-1.17z" fill="#161819"/></g><defs><filter id="A" x="0" y=".266" width="31.409" height="34.53" filterUnits="userSpaceOnUse" color-interpolation-filters="sRGB"><feFlood flood-opacity="0" result="A"/><feColorMatrix in="SourceAlpha" values="0 0 0 0 0 0 0 0 0 0 0 0 0 0 0 0 0 0 127 0"/><feOffset dy="2"/><feGaussianBlur stdDeviation="2"/><feColorMatrix values="0 0 0 0 1 0 0 0 0 1 0 0 0 0 1 0 0 0 0.25 0"/><feBlend in2="A"/><feBlend in="SourceGraphic"/></filter></defs></svg>
